app/client/src/assets/icons/blueprintjs/20px/widget-button.svg

<svg xmlns="http://www.w3.org/2000/svg" xml:space="preserve" viewBox="0 0 20 20"><path d="M1 4h18c.55 0 1 .45 1 1v10c0 .55-.45 1-1 1H1c-.55 0-1-.45-1-1V5c0-.55.45-1 1-1zm1 2v8h16V6H2zm4 5c-.55 0-1-.45-1-1s.45-1 1-1 1 .45 1 1-.45 1-1 1zm4 0c-.55 0-1-.45-1-1s.45-1 1-1 1 .45 1 1-.45 1-1 1zm4 0c-.55 0-1-.45-1-1s.45-1 1-1 1 .45 1 1-.45 1-1 1z"/></svg>

<?xml version="1.0" encoding="utf-8"?>
<!-- Generator: Adobe Illustrator 18.0.0, SVG Export Plug-In . SVG Version: 6.00 Build 0)  -->
<svg version="1.1" id="Layer_1" xmlns="http://www.w3.org/2000/svg" xmlns:xlink="http://www.w3.org/1999/xlink" x="0px" y="0px"
	 viewBox="0 0 20 20" enable-background="new 0 0 20 20" xml:space="preserve">
<g id="button_2_">
	<g id="pt-icon-button-widget-20">
		<path id="Combined-Shape_12_" d="M1,4h18l0,0c0.55,0,1,0.45,1,1v10c0,0.55-0.45,1-1,1H1c-0.55,0-1-0.45-1-1V5l0,0
			C0,4.45,0.45,4,1,4L1,4z M2,6v8h16V6H2z M6,11c-0.55,0-1-0.45-1-1c0-0.55,0.45-1,1-1s1,0.45,1,1C7,10.55,6.55,11,6,11z M10,11
			c-0.55,0-1-0.45-1-1c0-0.55,0.45-1,1-1c0.55,0,1,0.45,1,1C11,10.55,10.55,11,10,11z M14,11c-0.55,0-1-0.45-1-1c0-0.55,0.45-1,1-1
			s1,0.45,1,1C15,10.55,14.55,11,14,11z"/>
	</g>
</g>
</svg>
